assets/images/logo-uni-cunef.svg

<svg fill="none" height="34" viewBox="0 0 94 34" width="94" xmlns="http://www.w3.org/2000/svg" xmlns:xlink="http://www.w3.org/1999/xlink"><clipPath id="a"><path d="m0 0h94v34h-94z"/></clipPath><mask id="b" height="34" maskUnits="userSpaceOnUse" width="94" x="0" y="0"><path d="m.796875.321533h93.000025v32.999967h-93.000025z" fill="#fff"/></mask><g clip-path="url(#a)"><g fill="#001b3c" mask="url(#b)"><path d="m16.9656 19.0498c-1.4097.3501-2.9817.7556-5.506.7556-4.94579 0-10.662725-2.5353-10.662725-9.6615 0-6.55722 4.519705-9.822367 10.637325-9.822367 1.8867 0 3.7226.43295 5.5033.970777l-.3985 4.07565c-1.5958-.89225-3.1396-1.32251-4.8404-1.32251-3.51057 0-5.79586 2.59017-5.79586 6.09785 0 3.6965 2.57837 5.9387 6.19396 5.9387 1.6228 0 3.2705-.4329 4.6283-.9707z"/><path d="m16.9656 19.0498c-1.4097.3501-2.9817.7556-5.506.7556-4.94579 0-10.662725-2.5353-10.662725-9.6615 0-6.55722 4.519705-9.822367 10.637325-9.822367 1.8867 0 3.7226.43295 5.5033.970777l-.3985 4.07565c-1.5958-.89225-3.1396-1.32251-4.8404-1.32251-3.51057 0-5.79586 2.59017-5.79586 6.09785 0 3.6965 2.57837 5.9387 6.19396 5.9387 1.6228 0 3.2705-.4329 4.6283-.9707z"/><path d="m37.7337 12.3302c0 5.1545-3.2954 7.4758-8.1363 7.4758s-8.1384-2.3213-8.1384-7.4758v-11.685425h4.9474v10.849625c0 2.4826.6646 4.5876 3.1915 4.5876 2.527 0 3.19-2.1045 3.19-4.5876v-10.849625h4.9464z"/><path d="m37.7337 12.3302c0 5.1545-3.2954 7.4758-8.1363 7.4758s-8.1384-2.3213-8.1384-7.4758v-11.685425h4.9474v10.849625c0 2.4826.6646 4.5876 3.1915 4.5876 2.527 0 3.19-2.1045 3.19-4.5876v-10.849625h4.9464z"/><path d="m54.7826.643555.079 12.793845h-.053l-6.2771-12.793845h-6.301v18.837445h4.5462l-.1601-12.87079h.0552l6.4891 12.87079h6.1425v-18.837445z"/><path d="m54.7826.643555.079 12.793845h-.053l-6.2771-12.793845h-6.301v18.837445h4.5462l-.1601-12.87079h.0552l6.4891 12.87079h6.1425v-18.837445z"/><path d="m93.7971 9.72745v-1.46127h-7.4797v-4.05844h7.4739v-3.564185h-12.4202v18.838545h4.9463v-7.5834h5.3402c1.1823 0 2.1395-.9724 2.1395-2.17125z"/><path d="m93.7971 9.72745v-1.46127h-7.4797v-4.05844h7.4739v-3.564185h-12.4202v18.838545h4.9463v-7.5834h5.3402c1.1823 0 2.1395-.9724 2.1395-2.17125z"/><path d="m68.7448 11.9112h5.9925c1.1824 0 2.1396-.9724 2.1396-2.17123v-1.47365h-8.1321v-4.05844h8.1321v-3.563105h-13.08v18.837425h13.08v-3.5626h-8.1321z"/><path d="m68.7448 11.9112h5.9925c1.1824 0 2.1396-.9724 2.1396-2.17123v-1.47365h-8.1321v-4.05844h8.1321v-3.563105h-13.08v18.837425h13.08v-3.5626h-8.1321z"/><path d="m7.45885 30.0111c0 1.4113-.69427 2.189-1.95511 2.189-1.26083 0-1.98426-.8164-1.98426-2.2401v-4.3182h-1.16596v4.3699c0 2.0416 1.19935 3.3103 3.13061 3.3103 1.93127 0 3.14016-1.2607 3.14016-3.3722v-4.308h-1.1649z"/><path d="m17.1834 31.0572-4.1953-5.4154h-1.0213v7.5662h1.1458v-5.5499l4.3067 5.5499h.9094v-7.5662h-1.1453z"/><path d="m23.0214 25.6414h-1.1659v7.5667h1.1659z"/><path d="m29.5352 31.5407-2.4009-5.8989h-1.2905l3.2054 7.6178h.9508l3.2048-7.6178h-1.2598z"/><path d="m37.1249 29.9493h3.8689v-1.1106h-3.8689v-2.0857h4.3247v-1.1112h-5.4906v7.5662h5.5415v-1.1106h-4.3756z"/><path d="m50.5372 27.9862v-.021c0-.6061-.2131-1.1563-.6005-1.5495-.4918-.4991-1.2534-.7739-2.1443-.7739h-3.2319v7.5667h1.166v-2.7962h1.7511l2.0563 2.7962h1.44l-2.2275-3.007c1.1272-.3049 1.7908-1.117 1.7908-2.2153zm-1.1755.0097v.021c0 .7868-.644 1.295-1.6409 1.295h-1.9948v-2.5487h2.0049c1.0361 0 1.6308.4491 1.6308 1.2327z"/><path d="m56.462 28.8527c-1.6494-.3582-1.7808-.7465-1.7808-1.2171v-.0199c0-.5744.5454-.9761 1.3266-.9761.7075 0 1.3207.235 1.9307.7389l.1468.1216.6874-.9234-.1383-.113c-.7961-.6486-1.5752-.9251-2.6065-.9251-1.4559 0-2.5121.9036-2.5121 2.1487v.0209c0 1.4113 1.0091 1.9233 2.5253 2.2578 1.573.3373 1.6986.7202 1.6986 1.1859v.021c0 .6207-.5612 1.0375-1.397 1.0375-.8893 0-1.5587-.2808-2.3091-.9692l-.1405-.1285-.7329.8804.133.1199c.9031.8175 1.8623 1.1983 3.0188 1.1983 1.5332 0 2.6043-.9132 2.6043-2.2207v-.0204c0-1.173-.734-1.8367-2.4543-2.2175z"/><path d="m63.2324 25.6414h-1.166v7.5667h1.166z"/><path d="m69.4044 25.6418h-2.6446v7.5667h2.6446c2.289 0 3.9505-1.5909 3.9505-3.7831v-.0209c0-2.1799-1.6615-3.7627-3.9505-3.7627zm2.7543 3.7831v.021c0 1.5548-1.1326 2.6412-2.7543 2.6412h-1.4787v-5.3239h1.4787c1.6217 0 2.7543 1.094 2.7543 2.6617z"/><path d="m78.719 25.5903-3.3967 7.6178h1.2227l.8405-1.9013h3.6214l.831 1.9013h1.2624l-3.3966-7.6178zm1.812 4.6156h-2.668l1.3382-3.029z"/><path d="m88.4923 25.6418h-2.6446v7.5667h2.6446c2.289 0 3.9505-1.5909 3.9505-3.7831v-.0209c0-2.1799-1.6615-3.7627-3.9505-3.7627zm2.7548 3.7831v.021c0 1.5548-1.1325 2.6412-2.7543 2.6412h-1.4786v-5.3239h1.4786c1.6218 0 2.7543 1.094 2.7543 2.6617z"/></g></g></svg>

<svg width="94" height="34" viewBox="0 0 94 34" fill="none" xmlns="http://www.w3.org/2000/svg">
<g clip-path="url(#clip0_2355_7098)">
<mask id="mask0_2355_7098" style="mask-type:luminance" maskUnits="userSpaceOnUse" x="0" y="0" width="94" height="34">
<path d="M0.796875 0.321533H93.7969V33.3215H0.796875V0.321533Z" fill="white"/>
</mask>
<g mask="url(#mask0_2355_7098)">
<path d="M16.9656 19.0498C15.5559 19.3999 13.9839 19.8054 11.4596 19.8054C6.51381 19.8054 0.796875 17.2701 0.796875 10.1439C0.796875 3.58668 5.31658 0.321533 11.4342 0.321533C13.3209 0.321533 15.1568 0.754483 16.9375 1.29231L16.539 5.36796C14.9432 4.47571 13.3994 4.04545 11.6986 4.04545C8.18803 4.04545 5.90274 6.63562 5.90274 10.1433C5.90274 13.8398 8.48111 16.082 12.0967 16.082C13.7195 16.082 15.3672 15.6491 16.725 15.1113L16.9656 19.0498Z" fill="#001B3C"/>
<path d="M16.9656 19.0498C15.5559 19.3999 13.9839 19.8054 11.4596 19.8054C6.51381 19.8054 0.796875 17.2701 0.796875 10.1439C0.796875 3.58668 5.31658 0.321533 11.4342 0.321533C13.3209 0.321533 15.1568 0.754483 16.9375 1.29231L16.539 5.36796C14.9432 4.47571 13.3994 4.04545 11.6986 4.04545C8.18803 4.04545 5.90274 6.63562 5.90274 10.1433C5.90274 13.8398 8.48111 16.082 12.0967 16.082C13.7195 16.082 15.3672 15.6491 16.725 15.1113L16.9656 19.0498Z" fill="#001B3C"/>
<path d="M37.7337 12.3302C37.7337 17.4847 34.4383 19.806 29.5974 19.806C24.7565 19.806 21.459 17.4847 21.459 12.3302V0.644775H26.4064V11.4944C26.4064 13.977 27.071 16.082 29.5979 16.082C32.1249 16.082 32.7879 13.9775 32.7879 11.4944V0.644775H37.7343L37.7337 12.3302Z" fill="#001B3C"/>
<path d="M37.7337 12.3302C37.7337 17.4847 34.4383 19.806 29.5974 19.806C24.7565 19.806 21.459 17.4847 21.459 12.3302V0.644775H26.4064V11.4944C26.4064 13.977 27.071 16.082 29.5979 16.082C32.1249 16.082 32.7879 13.9775 32.7879 11.4944V0.644775H37.7343L37.7337 12.3302Z" fill="#001B3C"/>
<path d="M54.7826 0.643555L54.8616 13.4374H54.8086L48.5315 0.643555H42.2305V19.481H46.7767L46.6166 6.61021H46.6718L53.1609 19.481H59.3034V0.643555H54.7826Z" fill="#001B3C"/>
<path d="M54.7826 0.643555L54.8616 13.4374H54.8086L48.5315 0.643555H42.2305V19.481H46.7767L46.6166 6.61021H46.6718L53.1609 19.481H59.3034V0.643555H54.7826Z" fill="#001B3C"/>
<path d="M93.7971 9.72745V8.26618H86.3174V4.20774H93.7913V0.643555H81.3711V19.4821H86.3174V11.8987H91.6576C92.8399 11.8987 93.7971 10.9263 93.7971 9.72745Z" fill="#001B3C"/>
<path d="M93.7971 9.72745V8.26618H86.3174V4.20774H93.7913V0.643555H81.3711V19.4821H86.3174V11.8987H91.6576C92.8399 11.8987 93.7971 10.9263 93.7971 9.72745Z" fill="#001B3C"/>
<path d="M68.7448 11.9112H74.7373C75.9197 11.9112 76.8769 10.9388 76.8769 9.73997V8.26632H68.7448V4.20788H76.8769V0.644775H63.7969V19.4822H76.8769V15.9196H68.7448V11.9112Z" fill="#001B3C"/>
<path d="M68.7448 11.9112H74.7373C75.9197 11.9112 76.8769 10.9388 76.8769 9.73997V8.26632H68.7448V4.20788H76.8769V0.644775H63.7969V19.4822H76.8769V15.9196H68.7448V11.9112Z" fill="#001B3C"/>
<path d="M7.45885 30.0111C7.45885 31.4224 6.76458 32.2001 5.50374 32.2001C4.24291 32.2001 3.51948 31.3837 3.51948 29.96V25.6418H2.35352V30.0117C2.35352 32.0533 3.55287 33.322 5.48413 33.322C7.4154 33.322 8.62429 32.0613 8.62429 29.9498V25.6418H7.45939L7.45885 30.0111Z" fill="#001B3C"/>
<path d="M17.1834 31.0572L12.9881 25.6418H11.9668V33.208H13.1126V27.6581L17.4193 33.208H18.3287V25.6418H17.1834V31.0572Z" fill="#001B3C"/>
<path d="M23.0214 25.6414H21.8555V33.2081H23.0214V25.6414Z" fill="#001B3C"/>
<path d="M29.5352 31.5407L27.1343 25.6418H25.8438L29.0492 33.2596H30L33.2048 25.6418H31.945L29.5352 31.5407Z" fill="#001B3C"/>
<path d="M37.1249 29.9493H40.9938V28.8387H37.1249V26.753H41.4496V25.6418H35.959V33.208H41.5005V32.0974H37.1249V29.9493Z" fill="#001B3C"/>
<path d="M50.5372 27.9862V27.9652C50.5372 27.3591 50.3241 26.8089 49.9367 26.4157C49.4449 25.9166 48.6833 25.6418 47.7924 25.6418H44.5605V33.2085H45.7265V30.4123H47.4776L49.5339 33.2085H50.9739L48.7464 30.2015C49.8736 29.8966 50.5372 29.0845 50.5372 27.9862ZM49.3617 27.9959V28.0169C49.3617 28.8037 48.7177 29.3119 47.7208 29.3119H45.726V26.7632H47.7309C48.767 26.7632 49.3617 27.2123 49.3617 27.9959Z" fill="#001B3C"/>
<path d="M56.462 28.8527C54.8126 28.4945 54.6812 28.1062 54.6812 27.6356V27.6157C54.6812 27.0413 55.2266 26.6396 56.0078 26.6396C56.7153 26.6396 57.3285 26.8746 57.9385 27.3785L58.0853 27.5001L58.7727 26.5767L58.6344 26.4637C57.8383 25.8151 57.0592 25.5386 56.0279 25.5386C54.572 25.5386 53.5158 26.4422 53.5158 27.6873V27.7082C53.5158 29.1195 54.5249 29.6315 56.0411 29.966C57.6141 30.3033 57.7397 30.6862 57.7397 31.1519V31.1729C57.7397 31.7936 57.1785 32.2104 56.3427 32.2104C55.4534 32.2104 54.784 31.9296 54.0336 31.2412L53.8931 31.1127L53.1602 31.9931L53.2932 32.113C54.1963 32.9305 55.1555 33.3113 56.312 33.3113C57.8452 33.3113 58.9163 32.3981 58.9163 31.0906V31.0702C58.9163 29.8972 58.1823 29.2335 56.462 28.8527Z" fill="#001B3C"/>
<path d="M63.2324 25.6414H62.0664V33.2081H63.2324V25.6414Z" fill="#001B3C"/>
<path d="M69.4044 25.6418H66.7598V33.2085H69.4044C71.6934 33.2085 73.3549 31.6176 73.3549 29.4254V29.4045C73.3549 27.2246 71.6934 25.6418 69.4044 25.6418ZM72.1587 29.4249V29.4459C72.1587 31.0007 71.0261 32.0871 69.4044 32.0871H67.9257V26.7632H69.4044C71.0261 26.7632 72.1587 27.8572 72.1587 29.4249Z" fill="#001B3C"/>
<path d="M78.719 25.5903L75.3223 33.2081H76.545L77.3855 31.3068H81.0069L81.8379 33.2081H83.1003L79.7037 25.5903H78.719ZM80.531 30.2059H77.863L79.2012 27.1769L80.531 30.2059Z" fill="#001B3C"/>
<path d="M88.4923 25.6418H85.8477V33.2085H88.4923C90.7813 33.2085 92.4428 31.6176 92.4428 29.4254V29.4045C92.4428 27.2246 90.7813 25.6418 88.4923 25.6418ZM91.2471 29.4249V29.4459C91.2471 31.0007 90.1146 32.0871 88.4928 32.0871H87.0142V26.7632H88.4928C90.1146 26.7632 91.2471 27.8572 91.2471 29.4249Z" fill="#001B3C"/>
</g>
</g>
<defs>
<clipPath id="clip0_2355_7098">
<rect width="94" height="34" fill="white"/>
</clipPath>
</defs>
</svg>
